X:304
T:B304-  Mardyke
Q:1/4=120
L:1/4
M:6/4
K:F
c|f2ga3/2 b/a|g2fe3/2 d/c|f2ga3/2 b/a|g3f2::a|\
a3/2 ^g/ad2f|^f3g3|f2ed3/2 e/f|e2d^c2d|\
d3/2 ^c/dd3/2 ^c/d|d3/2 ^c/dd3/2 =c/ d/e/|f3c3|\
B3/ c/BA3/2 B/A|G3/2 A/GF2c|f3g3|\
abc'g2f|(f3f2)|]

